X:1
T:Abergenny
C:John Playford, 1686
S:Colin Hume's website,  colinhume.com  - chords can also be printed below the stave.
Q:1/2=92
M:2/2
L:1/8
%%MIDI ratio 3 1
%%MIDI ratio 3 1
%%MIDI ratio 3 1
K:Gm
|: "Gm"G2G2 "/"B3c | "Bb"d=ef2 "F"F3F | "Eb"G2G2 "Gm"Bcd2 | "F"c3d "Bb"B4 :|
P:B
|: "Gm"b2b2 "D"a2g^f | "C"g2^fg "D"a2d2 | "C"=e^fg2 "D"^f2g2 | "D7"g3^f "Gm"g4 :|

